X:358
T:Bell of Batoche, The
M:C|
C:© Paul Gitlitz 2014
K:Em
"Em"E2 G2 E3 A|BABc BAFD|[B,2E2] [B,2G2] [B,3E3]D|"Bm"B,A,B,D B,DGF|!
"Em"E2 G2 E3A|BABc [D3d3]A|"Em"B2Bc B2Bc|"Bm"BAFD "Em"E4:|!
"D"F2[A2A2]AFD2|"Bm"FDFG "D"AFDF|"Em"E2B2 "Bm"BAFD|"Em"BABc "Bm"B3A|!
"D"F[A2A2]z "D"AFD2|"Bm"FDFG "Am"ABcA|"Em"EB2c "Em"B2Bc|"Bm"BAFD "Em"E4:|]
